X: 39621
T: Tempest, The
R: reel
M: 4/4
K: Cmajor
|:d2 ed cAGA|Addc AGEG|d2 ed cdef|edce d2 ag|
efdf edcA|cAGc AGFE|DEFA GEcE|EDcG ED D2:|

